X:1
T:25a. Aria
T:Oft she visits this loved mountain
%%score 1 2 { ( 3 4 ) 5 }
L:1/8
Q:1/4=100
M:4/4
K:F
V:1 treble nm="2. Woman"
V:2 bass nm="Vcl"
V:3 treble nm="Cembalo, Harpsichord"
V:4 treble 
V:5 bass nm="Cembalo,  "
V:1
 z8 | z8 | z8 | z8 |: A2 A2 d2 d2 | ef ed d2 D2 | A2 e2 f2 d2 | e/f/g fe ^c2 =BA :| z2 d2 z2 A2- | %9
w: ||||Oft she vis- its|this _ loved _ moun- tain,|Oft she bathes her|in _ _ this _ foun- tain, _|Here, here|
 AB A<G G3 A | G2 PF3/2 E/ F2 z2 | B2 z2 A3 e | f2 ed d A2 d | =B3 B e>f e>d | ^c>=B A>G F>G A<F | %15
w: _ _ Ac- * tae- on|met _ his fate,|Here, here Ac-|tae- on _ met _ his|fate, Pur- sued _ _ _|_ _ _ _ _ _ by _|
 BA GF E3 A | F2 D2 A3 d | B2 A2 d3 e | ^c2 A2 f4- | fe de c2 =BA | A3 A d>e d>c | %21
w: his _ own _ hounds, And|af- ter, af- ter|mor- tal wounds, And|af- ter, af-|* * ter _ mor- tal _|wounds Dis- cov- * * *|
 =B>c B3/2 ^c/ d2 fe | ^c3 z/ A/ B3 =c | =B2 AG c3 d | c2 BA/ _B/ A3 d | _e2 dc d3 =e | f4 ^f3 f | %27
w: * * * er'd too, too _|late; And af- ter,|af- ter _ mor- *|* * * tal wounds Dis-|cov- er'd _ too, too|late; Here Ac-|
 g2 fe T^c3 d |[M:2/4] d4 |] %29
w: tae- on _ met his|fate.|
V:2
 D,^C,D,E, F,E,F,D, | G,F,G,A, B,A,B,G, | A,=B,^CA, D=C_B,A, | G,E,F,G, A,G,A,A,, |: %4
 D,^C,D,E, F,E,F,D, | G,F,G,A, B,A,B,G, | A,=B,^CA, D=C_B,A, | G,E,F,G, A,G,A,A,, :| %8
 D,^C,D,E, F,E,F,D, | G,F,G,A, B,A,B,G, | A,=B,^CA, D=C_B,A, | G,E,F,G, A,G,A,A,, | %12
 D,^C,D,E, F,E,F,D, | G,F,G,A, B,A,B,G, | A,=B,^CA, D=C_B,A, | G,E,F,G, A,G,A,A,, | %16
 D,^C,D,E, F,E,F,D, | G,F,G,A, B,A,B,G, | A,=B,^CA, D=C_B,A, | G,E,F,G, A,D,E,E,, | %20
 A,,^C,D,E, F,E,F,D, | G,F,G,A, B,A,B,G, | A,=B,^CA, D=C_B,A, | G,E,F,G, A,G,A,A,, | %24
 D,^C,D,E, F,E,F,D, | G,F,G,A, B,A,B,G, | A,=B,^CA, D=C_B,A, | B,E,F,G, A,G,A,A,, |[M:2/4] D,4 |] %29
V:3
 F3 G A2 d2 | =B3 c d2 g2 | [A^ce]2 ag fed=c | BAGF E3 A |: FEFG A2 dc | =BABc d4 | ^c=BAG F2 d=c | %7
 [DB]4 [^CA]4 :| FA d2 AGAF | B2 B,C D2- [DG]2 | ^C2 AG F2 dc | BGAB G3 c | FEFG AGAF | %13
 D2 z A G2 [^CE]>[DF] | [^CE]2 z E F2 [DF]>[DF] | [EG]2 z B [^CE]2 [CE]>[CE] | F3 G A4 | %17
 B2 A2 G3 B | A2 G2 F3 c | =B c2 B- B A2 ^G | A>E F>G A>A A>F | D7/2 A/ d>^c d>=B | %22
 A>D E>[G^c] [Fd]2 GA | =B3 _B c3 A | F3 G A3 ^F | B3 A G3 B | A3 ^c [^FAd]4 | [GBd]4 [EA^c]4 | %28
[M:2/4] [FAd]4 |] %29
V:4
 D4 z2 z F | G4 z2 z _B | x8 | D4- DD ^C2 |: D4 AGAF | G4 F2 z _B | E4 D4 | x8 :| F3 G x4 | x8 | %10
 x8 | z4 D2 ^C2 | x8 | x8 | x8 | x8 | D4 z4 | x8 | x8 | x8 | x8 | x8 | x6 G2- | GG F2- FF E2- | %24
 EE D2- DD^CD | _E2 D4 D2 | F2 F2 x4 | x8 |[M:2/4] x4 |] %29
V:5
 D,^C,D,E, F,E,F,D, | G,F,G,A, B,A,B,G, | A,=B,^CA, D=C_B,A, | G,E,F,G, A,G,A,A,, |: %4
 D,^C,D,E, F,E,F,D, | G,F,G,A, B,A,B,G, | A,=B,^CA, D=C_B,A, | G,E,F,G, A,G,A,A,, :| %8
 D,^C,D,E, F,E,F,D, | G,F,G,A, B,A,B,G, | A,=B,^CA, D=C_B,A, | G,E,F,G, A,G,A,A,, | %12
 D,^C,D,E, F,E,F,D, | G,F,G,A, B,A,B,G, | A,=B,^CA, D=C_B,A, | G,E,F,G, A,G,A,A,, | %16
 D,^C,D,E, F,E,F,D, | G,F,G,A, B,A,B,G, | A,=B,^CA, D=C_B,A, | G,E,F,G, A,D,E,E,, | %20
 A,,^C,D,E, F,E,F,D, | G,F,G,A, B,A,B,G, | A,=B,^CA, D=C_B,A, | G,E,F,G, A,G,A,A,, | %24
 D,^C,D,E, F,E,F,D, | G,F,G,A, B,A,B,G, | A,=B,^CA, D=C_B,A, | B,E,F,G, A,G,A,A,, | %28
[M:2/4] [D,,D,]4 |] %29

